T: Wind That Shakes The Barley, The
M: 4/4
L: 1/8
K: Dmaj
FAAB AFED | B2BA B2 d2 | FAAB AFED | gfed B2 d :|f2 fd g2 ge | f2 fd Bcde | f2 fd g2 gb | afed B2 d>e |f2 fd g2 ge | f2 fd Bcde | fafd gbge | afed B2 d |]
